luts/log3g10_rec709_1.CUBE
# Created by: Lutify.me
# Copyright: (c) Copyright Lutify.me 2016, G.T. Colord LTD
# Website: https://lutify.me
# Contact: help@lutify.me
LUT_3D_SIZE 17
0.015271 0.015271 0.015271
0.039824 0.013379 0.014277
0.092645 0.009603 0.012505
0.181398 0.003131 0.010064
0.303610 0.000000 0.006301
0.461599 0.000000 0.013956
0.619792 0.000000 0.027472
0.772351 0.000000 0.046333
0.917142 0.000000 0.069358
1.000000 0.000000 0.088749
1.000000 0.000000 0.100512
1.000000 0.000000 0.106604
1.000000 0.000000 0.109071
1.000000 0.000000 0.109951
1.000000 0.000000 0.111052
1.000000 0.000000 0.111052
1.000000 0.000000 0.111052
0.005981 0.035113 0.009796
0.030086 0.032974 0.009185
0.084076 0.028594 0.008073
0.176156 0.019377 0.005402
0.300275 0.000780 0.004032
0.460140 0.000000 0.013852
0.619049 0.000000 0.027396
0.771975 0.000000 0.046280
0.916965 0.000000 0.069329
1.000000 0.000000 0.088739
1.000000 0.000000 0.100509
1.000000 0.000000 0.106603
1.000000 0.000000 0.109071
1.000000 0.000000 0.109950
1.000000 0.000000 0.111052
1.000000 0.000000 0.111052
1.000000 0.000000 0.111052
0.000000 0.079153 0.002384
0.009584 0.076743 0.002156
0.063847 0.071913 0.001693
0.164683 0.061428 0.000000
0.293308 0.036195 0.000621
0.456359 0.000000 0.010906
0.617631 0.000000 0.027250
0.771259 0.000000 0.046181
0.916629 0.000000 0.069274
1.000000 0.000000 0.088720
1.000000 0.000000 0.100503
1.000000 0.000000 0.106602
1.000000 0.000000 0.109070
1.000000 0.000000 0.109950
1.000000 0.000000 0.111052
1.000000 0.000000 0.111052
1.000000 0.000000 0.111052
0.000000 0.157970 0.000000
0.000000 0.156024 0.000000
0.007708 0.152151 0.000000
0.132552 0.144619 0.000000
0.275996 0.127136 0.000000
0.447455 0.081774 0.001660
0.613643 0.000000 0.021489
0.769892 0.000000 0.045990
0.915989 0.000000 0.069169
1.000000 0.000000 0.088683
1.000000 0.000000 0.100492
1.000000 0.000000 0.106599
1.000000 0.000000 0.109070
1.000000 0.000000 0.109950
1.000000 0.000000 0.111052
1.000000 0.000000 0.111052
1.000000 0.000000 0.111052
0.000000 0.267508 0.000000
0.000000 0.266228 0.000000
0.000000 0.263559 0.000000
0.016854 0.258072 0.000000
0.229168 0.246246 0.000000
0.424924 0.219770 0.000000
0.602185 0.166476 0.000360
0.765029 0.003401 0.032153
0.914723 0.000000 0.068961
1.000000 0.000000 0.088614
1.000000 0.000000 0.100470
1.000000 0.000000 0.106593
1.000000 0.000000 0.109069
1.000000 0.000000 0.109950
1.000000 0.000000 0.111052
1.000000 0.000000 0.111052
1.000000 0.000000 0.111052
0.000000 0.414048 0.000000
0.000000 0.413268 0.000000
0.000000 0.411784 0.000000
0.000000 0.408696 0.000000
0.038424 0.402079 0.000000
0.363612 0.387805 0.000000
0.571322 0.358566 0.000000
0.747949 0.296521 0.000000
0.907739 0.118380 0.034249
1.000000 0.000000 0.088482
1.000000 0.000000 0.100430
1.000000 0.000000 0.106583
1.000000 0.000000 0.109067
1.000000 0.000000 0.109949
1.000000 0.000000 0.111052
1.000000 0.000000 0.111052
1.000000 0.000000 0.111052
0.000000 0.564192 0.000000
0.000000 0.563793 0.000000
0.000000 0.563033 0.000000
0.000000 0.561582 0.000000
0.000000 0.558394 0.000000
0.176074 0.551171 0.000000
0.504833 0.536577 0.000000
0.709309 0.508574 0.000000
0.882261 0.449841 0.000000
1.000000 0.283018 0.005153
1.000000 0.000000 0.100353
1.000000 0.000000 0.106563
1.000000 0.000000 0.109063
1.000000 0.000000 0.109948
1.000000 0.000000 0.111052
1.000000 0.000000 0.111052
1.000000 0.000000 0.111052
0.000000 0.709272 0.000000
0.000000 0.709070 0.000000
0.000000 0.708686 0.000000
0.000000 0.707953 0.000000
0.000000 0.706556 0.000000
0.000000 0.703134 0.000000
0.355003 0.695172 0.000000
0.641764 0.680845 0.000000
0.839256 0.654303 0.000000
0.988301 0.599970 0.000000
1.000000 0.452248 0.000000
1.000000 0.000000 0.106525
1.000000 0.000000 0.109055
1.000000 0.000000 0.109946
1.000000 0.000000 0.111052
1.000000 0.000000 0.111052
1.000000 0.000000 0.111052
0.000000 0.847411 0.000000
0.000000 0.847310 0.000000
0.000000 0.847118 0.000000
0.000000 0.846753 0.000000
0.000000 0.846058 0.000000
0.000000 0.844732 0.000000
0.000000 0.840726 0.000000
0.509923 0.832405 0.000000
0.772503 0.818597 0.000000
0.946339 0.794223 0.000000
1.000000 0.745275 0.000000
1.000000 0.609901 0.000000
1.000000 0.000000 0.109041
1.000000 0.000000 0.109941
1.000000 0.000000 0.111052
1.000000 0.000000 0.111052
1.000000 0.000000 0.111052
0.000000 0.965379 0.000000
0.000000 0.965338 0.000000
0.000000 0.965259 0.000000
0.000000 0.965110 0.000000
0.000000 0.964827 0.000000
0.000000 0.964288 0.000000
0.000000 0.963259 0.000000
0.000000 0.958788 0.000000
0.660129 0.951121 0.000000
0.887441 0.939775 0.000000
0.998022 0.921638 0.000000
1.000000 0.881698 0.000000
1.000000 0.758252 0.000000
1.000000 0.000000 0.109933
1.000000 0.000000 0.111052
1.000000 0.000000 0.111052
1.000000 0.000000 0.111052
0.000000 1.000000 0.000000
0.000000 1.000000 0.000000
0.000000 1.000000 0.000000
0.000000 1.000000 0.000000
0.000000 1.000000 0.000000
0.000000 1.000000 0.000000
0.000000 1.000000 0.000000
0.000000 1.000000 0.000000
0.389590 1.000000 0.000000
0.812875 1.000000 0.000000
0.962282 0.999100 0.000000
1.000000 0.996283 0.000000
1.000000 0.984377 0.000000
1.000000 0.894838 0.000000
1.000000 0.000000 0.111052
1.000000 0.000000 0.111052
1.000000 0.000000 0.111052
0.000000 1.000000 0.000000
0.000000 1.000000 0.000000
0.000000 1.000000 0.000000
0.000000 1.000000 0.000000
0.000000 1.000000 0.000000
0.000000 1.000000 0.000000
0.000000 1.000000 0.000000
0.000000 1.000000 0.000000
0.000000 1.000000 0.000000
0.635068 1.000000 0.000000
0.920712 1.000000 0.000000
1.000000 1.000000 0.000000
1.000000 1.000000 0.000000
1.000000 1.000000 0.000000
1.000000 0.991597 0.000000
1.000000 0.000000 0.111052
1.000000 0.000000 0.111052
0.000000 1.000000 0.000000
0.000000 1.000000 0.000000
0.000000 1.000000 0.000000
0.000000 1.000000 0.000000
0.000000 1.000000 0.000000
0.000000 1.000000 0.000000
0.000000 1.000000 0.000000
0.000000 1.000000 0.000000
0.000000 1.000000 0.000000
0.000000 1.000000 0.000000
0.818806 1.000000 0.000000
0.982896 1.000000 0.000000
1.000000 1.000000 0.000000
1.000000 1.000000 0.000000
1.000000 1.000000 0.000000
1.000000 1.000000 0.000000
1.000000 0.000000 0.111052
0.000000 1.000000 0.000000
0.000000 1.000000 0.000000
0.000000 1.000000 0.000000
0.000000 1.000000 0.000000
0.000000 1.000000 0.000000
0.000000 1.000000 0.000000
0.000000 1.000000 0.000000
0.000000 1.000000 0.000000
0.000000 1.000000 0.000000
0.000000 1.000000 0.000000
0.000000 1.000000 0.000000
0.930915 1.000000 0.000000
1.000000 1.000000 0.000000
1.000000 1.000000 0.000000
1.000000 1.000000 0.000000
1.000000 1.000000 0.000000
1.000000 1.000000 0.000000
0.000000 1.000000 0.000000
0.000000 1.000000 0.000000
0.000000 1.000000 0.000000
0.000000 1.000000 0.000000
0.000000 1.000000 0.000000
0.000000 1.000000 0.000000
0.000000 1.000000 0.000000
0.000000 1.000000 0.000000
0.000000 1.000000 0.000000
0.000000 1.000000 0.000000
0.000000 1.000000 0.000000
0.000000 1.000000 0.000000
0.988513 1.000000 0.000000
1.000000 1.000000 0.000000
1.000000 1.000000 0.000000
1.000000 1.000000 0.000000
1.000000 1.000000 0.000000
0.000000 1.000000 0.000000
0.000000 1.000000 0.000000
0.000000 1.000000 0.000000
0.000000 1.000000 0.000000
0.000000 1.000000 0.000000
0.000000 1.000000 0.000000
0.000000 1.000000 0.000000
0.000000 1.000000 0.000000
0.000000 1.000000 0.000000
0.000000 1.000000 0.000000
0.000000 1.000000 0.000000
0.000000 1.000000 0.000000
0.000000 1.000000 0.000000
1.000000 1.000000 0.000000
1.000000 1.000000 0.000000
1.000000 1.000000 0.000000
1.000000 1.000000 0.000000
0.000000 1.000000 0.000000
0.000000 1.000000 0.000000
0.000000 1.000000 0.000000
0.000000 1.000000 0.000000
0.000000 1.000000 0.000000
0.000000 1.000000 0.000000
0.000000 1.000000 0.000000
0.000000 1.000000 0.000000
0.000000 1.000000 0.000000
0.000000 1.000000 0.000000
0.000000 1.000000 0.000000
0.000000 1.000000 0.000000
0.000000 1.000000 0.000000
0.000000 1.000000 0.000000
1.000000 1.000000 0.000000
1.000000 1.000000 0.000000
1.000000 1.000000 0.000000
0.013956 0.010935 0.036021
0.038572 0.009083 0.034841
0.091971 0.005308 0.032708
0.181149 0.001117 0.029124
0.303581 0.000000 0.024472
0.461722 0.000000 0.016749
0.619864 0.000000 0.027480
0.772388 0.000000 0.046338
0.917159 0.000000 0.069361
1.000000 0.000000 0.088750
1.000000 0.000000 0.100512
1.000000 0.000000 0.106604
1.000000 0.000000 0.109071
1.000000 0.000000 0.109951
1.000000 0.000000 0.111052
1.000000 0.000000 0.111052
1.000000 0.000000 0.111052
0.005151 0.030938 0.030030
0.028868 0.028868 0.028868
0.083337 0.024620 0.026761
0.175909 0.015492 0.023739
0.300269 0.000439 0.019211
0.460283 0.000000 0.013863
0.619121 0.000000 0.027403
0.772012 0.000000 0.046285
0.916983 0.000000 0.069332
1.000000 0.000000 0.088740
1.000000 0.000000 0.100509
1.000000 0.000000 0.106603
1.000000 0.000000 0.109071
1.000000 0.000000 0.109950
1.000000 0.000000 0.111052
1.000000 0.000000 0.111052
1.000000 0.000000 0.111052
0.000000 0.076138 0.017953
0.008351 0.073689 0.017066
0.062926 0.068776 0.015464
0.164473 0.058221 0.012777
0.293400 0.034640 0.009286
0.456491 0.000000 0.010885
0.617704 0.000000 0.027258
0.771295 0.000000 0.046186
0.916646 0.000000 0.069277
1.000000 0.000000 0.088721
1.000000 0.000000 0.100503
1.000000 0.000000 0.106602
1.000000 0.000000 0.109071
1.000000 0.000000 0.109950
1.000000 0.000000 0.111052
1.000000 0.000000 0.111052
1.000000 0.000000 0.111052
0.000000 0.157111 0.000000
0.000000 0.155270 0.000000
0.007465 0.151599 0.000000
0.132646 0.144441 0.000000
0.276212 0.127515 0.000000
0.447580 0.082272 0.001626
0.613708 0.000000 0.021455
0.769929 0.000000 0.045995
0.916006 0.000000 0.069172
1.000000 0.000000 0.088684
1.000000 0.000000 0.100492
1.000000 0.000000 0.106599
1.000000 0.000000 0.109070
1.000000 0.000000 0.109950
1.000000 0.000000 0.111052
1.000000 0.000000 0.111052
1.000000 0.000000 0.111052
0.000000 0.267765 0.000000
0.000000 0.266486 0.000000
0.000000 0.263820 0.000000
0.017094 0.258337 0.000000
0.229407 0.246526 0.000000
0.425052 0.220029 0.000000
0.602240 0.166848 0.000350
0.765056 0.003761 0.032099
0.914742 0.000000 0.068964
1.000000 0.000000 0.088615
1.000000 0.000000 0.100471
1.000000 0.000000 0.106593
1.000000 0.000000 0.109069
1.000000 0.000000 0.109950
1.000000 0.000000 0.111052
1.000000 0.000000 0.111052
1.000000 0.000000 0.111052
0.000000 0.414206 0.000000
0.000000 0.413425 0.000000
0.000000 0.411942 0.000000
0.000000 0.408854 0.000000
0.038659 0.402241 0.000000
0.363757 0.387976 0.000000
0.571372 0.358760 0.000000
0.747969 0.296769 0.000000
0.907746 0.118897 0.034160
1.000000 0.000000 0.088483
1.000000 0.000000 0.100430
1.000000 0.000000 0.106583
1.000000 0.000000 0.109067
1.000000 0.000000 0.109949
1.000000 0.000000 0.111052
1.000000 0.000000 0.111052
1.000000 0.000000 0.111052
0.000000 0.564272 0.000000
0.000000 0.563873 0.000000
0.000000 0.563114 0.000000
0.000000 0.561664 0.000000
0.000000 0.558475 0.000000
0.176529 0.551253 0.000000
0.504908 0.536665 0.000000
0.709333 0.508674 0.000000
0.882266 0.449970 0.000000
1.000000 0.283288 0.005061
1.000000 0.000000 0.100353
1.000000 0.000000 0.106563
1.000000 0.000000 0.109063
1.000000 0.000000 0.109948
1.000000 0.000000 0.111052
1.000000 0.000000 0.111052
1.000000 0.000000 0.111052
0.000000 0.709313 0.000000
0.000000 0.709111 0.000000
0.000000 0.708726 0.000000
0.000000 0.707994 0.000000
0.000000 0.706597 0.000000
0.000000 0.703174 0.000000
0.355163 0.695213 0.000000
0.641801 0.680889 0.000000
0.839267 0.654354 0.000000
0.988295 0.600034 0.000000
1.000000 0.452372 0.000000
1.000000 0.000000 0.106525
1.000000 0.000000 0.109055
1.000000 0.000000 0.109946
1.000000 0.000000 0.111052
1.000000 0.000000 0.111052
1.000000 0.000000 0.111052
0.000000 0.847431 0.000000
0.000000 0.847330 0.000000
0.000000 0.847138 0.000000
0.000000 0.846774 0.000000
0.000000 0.846079 0.000000
0.000000 0.844753 0.000000
0.000000 0.840746 0.000000
0.509996 0.832425 0.000000
0.772522 0.818619 0.000000
0.946342 0.794248 0.000000
1.000000 0.745307 0.000000
1.000000 0.609963 0.000000
1.000000 0.000000 0.109041
1.000000 0.000000 0.109941
1.000000 0.000000 0.111052
1.000000 0.000000 0.111052
1.000000 0.000000 0.111052
0.000000 0.965387 0.000000
0.000000 0.965346 0.000000
0.000000 0.965268 0.000000
0.000000 0.965119 0.000000
0.000000 0.964836 0.000000
0.000000 0.964297 0.000000
0.000000 0.963268 0.000000
0.000000 0.958796 0.000000
0.660164 0.951130 0.000000
0.887449 0.939784 0.000000
0.998021 0.921649 0.000000
1.000000 0.881713 0.000000
1.000000 0.758282 0.000000
1.000000 0.000000 0.109933
1.000000 0.000000 0.111052
1.000000 0.000000 0.111052
1.000000 0.000000 0.111052
0.000000 1.000000 0.000000
0.000000 1.000000 0.000000
0.000000 1.000000 0.000000
0.000000 1.000000 0.000000
0.000000 1.000000 0.000000
0.000000 1.000000 0.000000
0.000000 1.000000 0.000000
0.000000 1.000000 0.000000
0.389690 1.000000 0.000000
0.812892 1.000000 0.000000
0.962285 0.999100 0.000000
1.000000 0.996284 0.000000
1.000000 0.984382 0.000000
1.000000 0.894852 0.000000
1.000000 0.000000 0.111052
1.000000 0.000000 0.111052
1.000000 0.000000 0.111052
0.000000 1.000000 0.000000
0.000000 1.000000 0.000000
0.000000 1.000000 0.000000
0.000000 1.000000 0.000000
0.000000 1.000000 0.000000
0.000000 1.000000 0.000000
0.000000 1.000000 0.000000
0.000000 1.000000 0.000000
0.000000 1.000000 0.000000
0.635104 1.000000 0.000000
0.920716 1.000000 0.000000
1.000000 1.000000 0.000000
1.000000 1.000000 0.000000
1.000000 1.000000 0.000000
1.000000 0.991599 0.000000
1.000000 0.000000 0.111052
1.000000 0.000000 0.111052
0.000000 1.000000 0.000000
0.000000 1.000000 0.000000
0.000000 1.000000 0.000000
0.000000 1.000000 0.000000
0.000000 1.000000 0.000000
0.000000 1.000000 0.000000
0.000000 1.000000 0.000000
0.000000 1.000000 0.000000
0.000000 1.000000 0.000000
0.000000 1.000000 0.000000
0.818819 1.000000 0.000000
0.982897 1.000000 0.000000
1.000000 1.000000 0.000000
1.000000 1.000000 0.000000
1.000000 1.000000 0.000000
1.000000 1.000000 0.000000
1.000000 0.000000 0.111052
0.000000 1.000000 0.000000
0.000000 1.000000 0.000000
0.000000 1.000000 0.000000
0.000000 1.000000 0.000000
0.000000 1.000000 0.000000
0.000000 1.000000 0.000000
0.000000 1.000000 0.000000
0.000000 1.000000 0.000000
0.000000 1.000000 0.000000
0.000000 1.000000 0.000000
0.000000 1.000000 0.000000
0.930918 1.000000 0.000000
1.000000 1.000000 0.000000
1.000000 1.000000 0.000000
1.000000 1.000000 0.000000
1.000000 1.000000 0.000000
1.000000 1.000000 0.000000
0.000000 1.000000 0.000000
0.000000 1.000000 0.000000
0.000000 1.000000 0.000000
0.000000 1.000000 0.000000
0.000000 1.000000 0.000000
0.000000 1.000000 0.000000
0.000000 1.000000 0.000000
0.000000 1.000000 0.000000
0.000000 1.000000 0.000000
0.000000 1.000000 0.000000
0.000000 1.000000 0.000000
0.000000 1.000000 0.000000
0.988514 1.000000 0.000000
1.000000 1.000000 0.000000
1.000000 1.000000 0.000000
1.000000 1.000000 0.000000
1.000000 1.000000 0.000000
0.000000 1.000000 0.000000
0.000000 1.000000 0.000000
0.000000 1.000000 0.000000
0.000000 1.000000 0.000000
0.000000 1.000000 0.000000
0.000000 1.000000 0.000000
0.000000 1.000000 0.000000
0.000000 1.000000 0.000000
0.000000 1.000000 0.000000
0.000000 1.000000 0.000000
0.000000 1.000000 0.000000
0.000000 1.000000 0.000000
0.000000 1.000000 0.000000
1.000000 1.000000 0.000000
1.000000 1.000000 0.000000
1.000000 1.000000 0.000000
1.000000 1.000000 0.000000
0.000000 1.000000 0.000000
0.000000 1.000000 0.000000
0.000000 1.000000 0.000000
0.000000 1.000000 0.000000
0.000000 1.000000 0.000000
0.000000 1.000000 0.000000
0.000000 1.000000 0.000000
0.000000 1.000000 0.000000
0.000000 1.000000 0.000000
0.000000 1.000000 0.000000
0.000000 1.000000 0.000000
0.000000 1.000000 0.000000
0.000000 1.000000 0.000000
0.000000 1.000000 0.000000
1.000000 1.000000 0.000000
1.000000 1.000000 0.000000
1.000000 1.000000 0.000000
0.010216 0.002709 0.086259
0.035050 0.002222 0.084392
0.089881 0.000265 0.081399
0.180357 0.000000 0.076005
0.303379 0.000000 0.067185
0.461684 0.000000 0.054235
0.619969 0.000000 0.034258
0.772457 0.000000 0.046347
0.917192 0.000000 0.069366
1.000000 0.000000 0.088752
1.000000 0.000000 0.100513
1.000000 0.000000 0.106604
1.000000 0.000000 0.109071
1.000000 0.000000 0.109951
1.000000 0.000000 0.111052
1.000000 0.000000 0.111052
1.000000 0.000000 0.111052
0.002504 0.019769 0.079426
0.025481 0.017877 0.077747
0.081195 0.013970 0.074628
0.175149 0.006708 0.069250
0.300061 0.000000 0.061071
0.460262 0.000000 0.049978
0.619242 0.000000 0.030904
0.772081 0.000000 0.046295
0.917015 0.000000 0.069337
1.000000 0.000000 0.088742
1.000000 0.000000 0.100509
1.000000 0.000000 0.106603
1.000000 0.000000 0.109071
1.000000 0.000000 0.109950
1.000000 0.000000 0.111052
1.000000 0.000000 0.111052
1.000000 0.000000 0.111052
0.000000 0.068017 0.065178
0.005762 0.065508 0.063516
0.060448 0.060448 0.060448
0.163728 0.049597 0.055764
0.293207 0.026536 0.048600
0.456510 0.000000 0.039094
0.617843 0.000000 0.027272
0.771365 0.000000 0.046195
0.916679 0.000000 0.069282
1.000000 0.000000 0.088723
1.000000 0.000000 0.100504
1.000000 0.000000 0.106602
1.000000 0.000000 0.109071
1.000000 0.000000 0.109950
1.000000 0.000000 0.111052
1.000000 0.000000 0.111052
1.000000 0.000000 0.111052
0.000000 0.153849 0.032639
0.000000 0.152020 0.031468
0.006488 0.148366 0.029325
0.131739 0.141114 0.025681
0.276088 0.124406 0.021041
0.447692 0.080592 0.015937
0.613831 0.000000 0.021390
0.769999 0.000000 0.046005
0.916039 0.000000 0.069177
1.000000 0.000000 0.088686
1.000000 0.000000 0.100492
1.000000 0.000000 0.106599
1.000000 0.000000 0.109070
1.000000 0.000000 0.109950
1.000000 0.000000 0.111052
1.000000 0.000000 0.111052
1.000000 0.000000 0.111052
0.000000 0.267007 0.000000
0.000000 0.265802 0.000000
0.000000 0.263259 0.000000
0.016876 0.257988 0.000000
0.229707 0.246637 0.000000
0.425297 0.220521 0.000000
0.602345 0.167551 0.000332
0.765107 0.004442 0.031997
0.914777 0.000000 0.068970
1.000000 0.000000 0.088617
1.000000 0.000000 0.100471
1.000000 0.000000 0.106594
1.000000 0.000000 0.109069
1.000000 0.000000 0.109950
1.000000 0.000000 0.111052
1.000000 0.000000 0.111052
1.000000 0.000000 0.111052
0.000000 0.414504 0.000000
0.000000 0.413722 0.000000
0.000000 0.412241 0.000000
0.000000 0.409154 0.000000
0.039106 0.402547 0.000000
0.364033 0.388299 0.000000
0.571468 0.359127 0.000000
0.748007 0.297239 0.000000
0.907760 0.119875 0.033991
1.000000 0.000000 0.088485
1.000000 0.000000 0.100431
1.000000 0.000000 0.106583
1.000000 0.000000 0.109067
1.000000 0.000000 0.109949
1.000000 0.000000 0.111052
1.000000 0.000000 0.111052
1.000000 0.000000 0.111052
0.000000 0.564424 0.000000
0.000000 0.564026 0.000000
0.000000 0.563267 0.000000
0.000000 0.561818 0.000000
0.000000 0.558628 0.000000
0.177392 0.551409 0.000000
0.505051 0.536833 0.000000
0.709378 0.508862 0.000000
0.882276 0.450215 0.000000
1.000000 0.283801 0.004887
1.000000 0.000000 0.100354
1.000000 0.000000 0.106563
1.000000 0.000000 0.109063
1.000000 0.000000 0.109948
1.000000 0.000000 0.111052
1.000000 0.000000 0.111052
1.000000 0.000000 0.111052
0.000000 0.709390 0.000000
0.000000 0.709188 0.000000
0.000000 0.708804 0.000000
0.000000 0.708072 0.000000
0.000000 0.706675 0.000000
0.000000 0.703250 0.000000
0.355466 0.695292 0.000000
0.641873 0.680973 0.000000
0.839288 0.654450 0.000000
0.988282 0.600156 0.000000
1.000000 0.452609 0.000000
1.000000 0.000000 0.106525
1.000000 0.000000 0.109055
1.000000 0.000000 0.109946
1.000000 0.000000 0.111052
1.000000 0.000000 0.111052
1.000000 0.000000 0.111052
0.000000 0.847469 0.000000
0.000000 0.847369 0.000000
0.000000 0.847177 0.000000
0.000000 0.846812 0.000000
0.000000 0.846118 0.000000
0.000000 0.844792 0.000000
0.000000 0.840783 0.000000
0.510133 0.832465 0.000000
0.772558 0.818661 0.000000
0.946348 0.794295 0.000000
1.000000 0.745368 0.000000
1.000000 0.610079 0.000000
1.000000 0.000000 0.109041
1.000000 0.000000 0.109941
1.000000 0.000000 0.111052
1.000000 0.000000 0.111052
1.000000 0.000000 0.111052
0.000000 0.965403 0.000000
0.000000 0.965362 0.000000
0.000000 0.965283 0.000000
0.000000 0.965135 0.000000
0.000000 0.964852 0.000000
0.000000 0.964313 0.000000
0.000000 0.963284 0.000000
0.000000 0.958810 0.000000
0.660230 0.951145 0.000000
0.887464 0.939801 0.000000
0.998018 0.921668 0.000000
1.000000 0.881742 0.000000
1.000000 0.758340 0.000000
1.000000 0.000000 0.109933
1.000000 0.000000 0.111052
1.000000 0.000000 0.111052
1.000000 0.000000 0.111052
0.000000 1.000000 0.000000
0.000000 1.000000 0.000000
0.000000 1.000000 0.000000
0.000000 1.000000 0.000000
0.000000 1.000000 0.000000
0.000000 1.000000 0.000000
0.000000 1.000000 0.000000
0.000000 1.000000 0.000000
0.389882 1.000000 0.000000
0.812924 1.000000 0.000000
0.962290 0.999101 0.000000
1.000000 0.996286 0.000000
1.000000 0.984392 0.000000
1.000000 0.894879 0.000000
1.000000 0.000000 0.111052
1.000000 0.000000 0.111052
1.000000 0.000000 0.111052
0.000000 1.000000 0.000000
0.000000 1.000000 0.000000
0.000000 1.000000 0.000000
0.000000 1.000000 0.000000
0.000000 1.000000 0.000000
0.000000 1.000000 0.000000
0.000000 1.000000 0.000000
0.000000 1.000000 0.000000
0.000000 1.000000 0.000000
0.635172 1.000000 0.000000
0.920724 1.000000 0.000000
1.000000 1.000000 0.000000
1.000000 1.000000 0.000000
1.000000 1.000000 0.000000
1.000000 0.991601 0.000000
1.000000 0.000000 0.111052
1.000000 0.000000 0.111052
0.000000 1.000000 0.000000
0.000000 1.000000 0.000000
0.000000 1.000000 0.000000
0.000000 1.000000 0.000000
0.000000 1.000000 0.000000
0.000000 1.000000 0.000000
0.000000 1.000000 0.000000
0.000000 1.000000 0.000000
0.000000 1.000000 0.000000
0.000000 1.000000 0.000000
0.818843 1.000000 0.000000
0.982899 1.000000 0.000000
1.000000 1.000000 0.000000
1.000000 1.000000 0.000000
1.000000 1.000000 0.000000
1.000000 1.000000 0.000000
1.000000 0.000000 0.111052
0.000000 1.000000 0.000000
0.000000 1.000000 0.000000
0.000000 1.000000 0.000000
0.000000 1.000000 0.000000
0.000000 1.000000 0.000000
0.000000 1.000000 0.000000
0.000000 1.000000 0.000000
0.000000 1.000000 0.000000
0.000000 1.000000 0.000000
0.000000 1.000000 0.000000
0.000000 1.000000 0.000000
0.930926 1.000000 0.000000
1.000000 1.000000 0.000000
1.000000 1.000000 0.000000
1.000000 1.000000 0.000000
1.000000 1.000000 0.000000
1.000000 1.000000 0.000000
0.000000 1.000000 0.000000
0.000000 1.000000 0.000000
0.000000 1.000000 0.000000
0.000000 1.000000 0.000000
0.000000 1.000000 0.000000
0.000000 1.000000 0.000000
0.000000 1.000000 0.000000
0.000000 1.000000 0.000000
0.000000 1.000000 0.000000
0.000000 1.000000 0.000000
0.000000 1.000000 0.000000
0.000000 1.000000 0.000000
0.988516 1.000000 0.000000
1.000000 1.000000 0.000000
1.000000 1.000000 0.000000
1.000000 1.000000 0.000000
1.000000 1.000000 0.000000
0.000000 1.000000 0.000000
0.000000 1.000000 0.000000
0.000000 1.000000 0.000000
0.000000 1.000000 0.000000
0.000000 1.000000 0.000000
0.000000 1.000000 0.000000
0.000000 1.000000 0.000000
0.000000 1.000000 0.000000
0.000000 1.000000 0.000000
0.000000 1.000000 0.000000
0.000000 1.000000 0.000000
0.000000 1.000000 0.000000
0.000000 1.000000 0.000000
1.000000 1.000000 0.000000
1.000000 1.000000 0.000000
1.000000 1.000000 0.000000
1.000000 1.000000 0.000000
0.000000 1.000000 0.000000
0.000000 1.000000 0.000000
0.000000 1.000000 0.000000
0.000000 1.000000 0.000000
0.000000 1.000000 0.000000
0.000000 1.000000 0.000000
0.000000 1.000000 0.000000
0.000000 1.000000 0.000000
0.000000 1.000000 0.000000
0.000000 1.000000 0.000000
0.000000 1.000000 0.000000
0.000000 1.000000 0.000000
0.000000 1.000000 0.000000
0.000000 1.000000 0.000000
1.000000 1.000000 0.000000
1.000000 1.000000 0.000000
1.000000 1.000000 0.000000
0.002722 0.000000 0.169912
0.023751 0.000000 0.168801
0.082347 0.000000 0.166702
0.176992 0.000000 0.162813
0.301940 0.000000 0.155358
0.461120 0.000000 0.140432
0.619734 0.000000 0.109701
0.772535 0.000000 0.060556
0.917254 0.000000 0.069377
1.000000 0.000000 0.088755
1.000000 0.000000 0.100514
1.000000 0.000000 0.106605
1.000000 0.000000 0.109071
1.000000 0.000000 0.109951
1.000000 0.000000 0.111052
1.000000 0.000000 0.111052
