luts/log3g10_rec709_1.CUBE
# Created by: Lutify.me
# Copyright: (c) Copyright Lutify.me 2016, G.T. Colord LTD
# Website: https://lutify.me
# Contact: help@lutify.me
LUT_3D_SIZE 9
0.015271 0.015271 0.015271
0.092645 0.009603 0.012505
0.303610 0.000000 0.006301
0.619792 0.000000 0.027472
0.917142 0.000000 0.069358
1.000000 0.000000 0.100512
1.000000 0.000000 0.109071
1.000000 0.000000 0.111052
1.000000 0.000000 0.111052
0.000000 0.079153 0.002384
0.063847 0.071913 0.001693
0.293308 0.036195 0.000621
0.617631 0.000000 0.027250
0.916629 0.000000 0.069274
1.000000 0.000000 0.100503
1.000000 0.000000 0.109070
1.000000 0.000000 0.111052
1.000000 0.000000 0.111052
0.000000 0.267508 0.000000
0.000000 0.263559 0.000000
0.229168 0.246246 0.000000
0.602185 0.166476 0.000360
0.914723 0.000000 0.068961
1.000000 0.000000 0.100470
1.000000 0.000000 0.109069
1.000000 0.000000 0.111052
1.000000 0.000000 0.111052
0.000000 0.564192 0.000000
0.000000 0.563033 0.000000
0.000000 0.558394 0.000000
0.504833 0.536577 0.000000
0.882261 0.449841 0.000000
1.000000 0.000000 0.100353
1.000000 0.000000 0.109063
1.000000 0.000000 0.111052
1.000000 0.000000 0.111052
0.000000 0.847411 0.000000
0.000000 0.847118 0.000000
0.000000 0.846058 0.000000
0.000000 0.840726 0.000000
0.772503 0.818597 0.000000
1.000000 0.745275 0.000000
1.000000 0.000000 0.109041
1.000000 0.000000 0.111052
1.000000 0.000000 0.111052
0.000000 1.000000 0.000000
0.000000 1.000000 0.000000
0.000000 1.000000 0.000000
0.000000 1.000000 0.000000
0.389590 1.000000 0.000000
0.962282 0.999100 0.000000
1.000000 0.984377 0.000000
1.000000 0.000000 0.111052
1.000000 0.000000 0.111052
0.000000 1.000000 0.000000
0.000000 1.000000 0.000000
0.000000 1.000000 0.000000
0.000000 1.000000 0.000000
0.000000 1.000000 0.000000
0.818806 1.000000 0.000000
1.000000 1.000000 0.000000
1.000000 1.000000 0.000000
1.000000 0.000000 0.111052
0.000000 1.000000 0.000000
0.000000 1.000000 0.000000
0.000000 1.000000 0.000000
0.000000 1.000000 0.000000
0.000000 1.000000 0.000000
0.000000 1.000000 0.000000
0.988513 1.000000 0.000000
1.000000 1.000000 0.000000
1.000000 1.000000 0.000000
0.000000 1.000000 0.000000
0.000000 1.000000 0.000000
0.000000 1.000000 0.000000
0.000000 1.000000 0.000000
0.000000 1.000000 0.000000
0.000000 1.000000 0.000000
0.000000 1.000000 0.000000
1.000000 1.000000 0.000000
1.000000 1.000000 0.000000
0.010216 0.002709 0.086259
0.089881 0.000265 0.081399
0.303379 0.000000 0.067185
0.619969 0.000000 0.034258
0.917192 0.000000 0.069366
1.000000 0.000000 0.100513
1.000000 0.000000 0.109071
1.000000 0.000000 0.111052
1.000000 0.000000 0.111052
0.000000 0.068017 0.065178
0.060448 0.060448 0.060448
0.293207 0.026536 0.048600
0.617843 0.000000 0.027272
0.916679 0.000000 0.069282
1.000000 0.000000 0.100504
1.000000 0.000000 0.109071
1.000000 0.000000 0.111052
1.000000 0.000000 0.111052
0.000000 0.267007 0.000000
0.000000 0.263259 0.000000
0.229707 0.246637 0.000000
0.602345 0.167551 0.000332
0.914777 0.000000 0.068970
1.000000 0.000000 0.100471
1.000000 0.000000 0.109069
1.000000 0.000000 0.111052
1.000000 0.000000 0.111052
0.000000 0.564424 0.000000
0.000000 0.563267 0.000000
0.000000 0.558628 0.000000
0.505051 0.536833 0.000000
0.882276 0.450215 0.000000
1.000000 0.000000 0.100354
1.000000 0.000000 0.109063
1.000000 0.000000 0.111052
1.000000 0.000000 0.111052
0.000000 0.847469 0.000000
0.000000 0.847177 0.000000
0.000000 0.846118 0.000000
0.000000 0.840783 0.000000
0.772558 0.818661 0.000000
1.000000 0.745368 0.000000
1.000000 0.000000 0.109041
1.000000 0.000000 0.111052
1.000000 0.000000 0.111052
0.000000 1.000000 0.000000
0.000000 1.000000 0.000000
0.000000 1.000000 0.000000
0.000000 1.000000 0.000000
0.389882 1.000000 0.000000
0.962290 0.999101 0.000000
1.000000 0.984392 0.000000
1.000000 0.000000 0.111052
1.000000 0.000000 0.111052
0.000000 1.000000 0.000000
0.000000 1.000000 0.000000
0.000000 1.000000 0.000000
0.000000 1.000000 0.000000
0.000000 1.000000 0.000000
0.818843 1.000000 0.000000
1.000000 1.000000 0.000000
1.000000 1.000000 0.000000
1.000000 0.000000 0.111052
0.000000 1.000000 0.000000
0.000000 1.000000 0.000000
0.000000 1.000000 0.000000
0.000000 1.000000 0.000000
0.000000 1.000000 0.000000
0.000000 1.000000 0.000000
0.988516 1.000000 0.000000
1.000000 1.000000 0.000000
1.000000 1.000000 0.000000
0.000000 1.000000 0.000000
0.000000 1.000000 0.000000
0.000000 1.000000 0.000000
0.000000 1.000000 0.000000
0.000000 1.000000 0.000000
0.000000 1.000000 0.000000
0.000000 1.000000 0.000000
1.000000 1.000000 0.000000
1.000000 1.000000 0.000000
0.000000 0.000000 0.290168
0.056157 0.000000 0.287388
0.297180 0.000000 0.277557
0.618318 0.000000 0.241377
0.917283 0.000000 0.092989
1.000000 0.000000 0.100516
1.000000 0.000000 0.109071
1.000000 0.000000 0.111052
1.000000 0.000000 0.111052
0.000000 0.000000 0.280388
0.021091 0.000000 0.277541
0.287094 0.000000 0.267368
0.616349 0.000000 0.231667
0.916801 0.000000 0.085064
1.000000 0.000000 0.100507
1.000000 0.000000 0.109071
1.000000 0.000000 0.111052
1.000000 0.000000 0.111052
0.000000 0.243105 0.236201
0.000000 0.239402 0.233202
0.222755 0.222755 0.222755
0.601227 0.142203 0.186671
0.914970 0.000000 0.069002
1.000000 0.000000 0.100474
1.000000 0.000000 0.109069
1.000000 0.000000 0.111052
1.000000 0.000000 0.111052
0.000000 0.562874 0.000000
0.000000 0.561859 0.000000
0.000000 0.557733 0.000000
0.505661 0.537279 0.000000
0.882327 0.451558 0.000000
1.000000 0.000000 0.100357
1.000000 0.000000 0.109063
1.000000 0.000000 0.111052
1.000000 0.000000 0.111052
0.000000 0.847682 0.000000
0.000000 0.847389 0.000000
0.000000 0.846331 0.000000
0.000000 0.840987 0.000000
0.772755 0.818892 0.000000
1.000000 0.745703 0.000000
1.000000 0.000000 0.109041
1.000000 0.000000 0.111052
1.000000 0.000000 0.111052
0.000000 1.000000 0.000000
0.000000 1.000000 0.000000
0.000000 1.000000 0.000000
0.000000 1.000000 0.000000
0.390936 1.000000 0.000000
0.962316 0.999108 0.000000
1.000000 0.984447 0.000000
1.000000 0.000000 0.111052
1.000000 0.000000 0.111052
0.000000 1.000000 0.000000
0.000000 1.000000 0.000000
0.000000 1.000000 0.000000
0.000000 1.000000 0.000000
0.000000 1.000000 0.000000
0.818975 1.000000 0.000000
1.000000 1.000000 0.000000
1.000000 1.000000 0.000000
1.000000 0.000000 0.111052
0.000000 1.000000 0.000000
0.000000 1.000000 0.000000
0.000000 1.000000 0.000000
0.000000 1.000000 0.000000
0.000000 1.000000 0.000000
0.000000 1.000000 0.000000
0.988527 1.000000 0.000000
1.000000 1.000000 0.000000
1.000000 1.000000 0.000000
0.000000 1.000000 0.000000
0.000000 1.000000 0.000000
0.000000 1.000000 0.000000
0.000000 1.000000 0.000000
0.000000 1.000000 0.000000
0.000000 1.000000 0.000000
0.000000 1.000000 0.000000
1.000000 1.000000 0.000000
1.000000 1.000000 0.000000
0.000000 0.000000 0.576502
0.000000 0.000000 0.575787
0.267481 0.000000 0.573338
0.607476 0.000000 0.564057
0.910869 0.000000 0.522314
1.000000 0.000000 0.188078
1.000000 0.000000 0.109072
1.000000 0.000000 0.111052
1.000000 0.000000 0.111052
0.000000 0.000000 0.573650
0.000000 0.000000 0.572951
0.254428 0.000000 0.570545
0.605301 0.000000 0.561573
0.910450 0.000000 0.519335
1.000000 0.000000 0.179446
1.000000 0.000000 0.109071
1.000000 0.000000 0.111052
1.000000 0.000000 0.111052
0.000000 0.003238 0.561102
0.000000 0.000000 0.560388
0.169577 0.000000 0.557999
0.589050 0.000000 0.549583
0.908906 0.000000 0.508187
1.000000 0.000000 0.146205
1.000000 0.000000 0.109070
1.000000 0.000000 0.111052
1.000000 0.000000 0.111052
0.000000 0.517856 0.506264
0.000000 0.516790 0.505306
0.000000 0.512350 0.501990
0.491006 0.491006 0.491006
0.876801 0.407364 0.440252
1.000000 0.000000 0.100368
1.000000 0.000000 0.109064
1.000000 0.000000 0.111052
1.000000 0.000000 0.111052
0.000000 0.839406 0.118247
0.000000 0.839274 0.112068
0.000000 0.838728 0.088662
0.000000 0.835138 0.024729
0.773011 0.818492 0.000000
1.000000 0.746907 0.000000
1.000000 0.000000 0.109042
1.000000 0.000000 0.111052
1.000000 0.000000 0.111052
0.000000 1.000000 0.000000
0.000000 1.000000 0.000000
0.000000 1.000000 0.000000
0.000000 1.000000 0.000000
0.394720 1.000000 0.000000
0.962411 0.999131 0.000000
1.000000 0.984646 0.000000
1.000000 0.000000 0.111052
1.000000 0.000000 0.111052
0.000000 1.000000 0.000000
0.000000 1.000000 0.000000
0.000000 1.000000 0.000000
0.000000 1.000000 0.000000
0.000000 1.000000 0.000000
0.819451 1.000000 0.000000
1.000000 1.000000 0.000000
1.000000 1.000000 0.000000
1.000000 0.000000 0.111052
0.000000 1.000000 0.000000
0.000000 1.000000 0.000000
0.000000 1.000000 0.000000
0.000000 1.000000 0.000000
0.000000 1.000000 0.000000
0.000000 1.000000 0.000000
0.988567 1.000000 0.000000
1.000000 1.000000 0.000000
1.000000 1.000000 0.000000
0.000000 1.000000 0.000000
0.000000 1.000000 0.000000
0.000000 1.000000 0.000000
0.000000 1.000000 0.000000
0.000000 1.000000 0.000000
0.000000 1.000000 0.000000
0.000000 1.000000 0.000000
1.000000 1.000000 0.000000
1.000000 1.000000 0.000000
0.000000 0.000000 0.839998
0.000000 0.000000 0.839884
0.219541 0.000000 0.839542
0.591266 0.000000 0.838187
0.898224 0.000000 0.830519
1.000000 0.000000 0.791821
1.000000 0.000000 0.406465
1.000000 0.000000 0.111052
1.000000 0.000000 0.111052
0.000000 0.000000 0.838968
0.000000 0.000000 0.838863
0.197817 0.000000 0.838561
0.587819 0.000000 0.837408
0.897738 0.000000 0.829941
1.000000 0.000000 0.791070
1.000000 0.000000 0.401292
1.000000 0.000000 0.111052
1.000000 0.000000 0.111052
0.000000 0.000000 0.834411
0.000000 0.000000 0.834320
0.039632 0.000000 0.834108
0.568163 0.000000 0.833397
0.895774 0.000000 0.827770
1.000000 0.000000 0.788337
1.000000 0.000000 0.381673
1.000000 0.000000 0.111052
1.000000 0.000000 0.111052
0.000000 0.413213 0.816786
0.000000 0.411620 0.816638
0.000000 0.404661 0.816232
0.462373 0.372107 0.815308
0.860202 0.201561 0.810229
1.000000 0.000000 0.778148
1.000000 0.000000 0.293557
1.000000 0.000000 0.111052
1.000000 0.000000 0.111052
0.000000 0.779215 0.763557
0.000000 0.778945 0.763315
0.000000 0.777970 0.762439
0.000000 0.772458 0.759884
0.750603 0.750602 0.750602
1.000000 0.681186 0.702064
1.000000 0.000000 0.109044
1.000000 0.000000 0.111052
1.000000 0.000000 0.111052
0.000000 1.000000 0.512149
0.000000 1.000000 0.511261
0.000000 1.000000 0.508034
0.000000 1.000000 0.496061
0.375649 1.000000 0.450594
0.960525 0.998619 0.000000
1.000000 0.985362 0.000000
1.000000 0.000000 0.111052
1.000000 0.000000 0.111052
0.000000 1.000000 0.000000
0.000000 1.000000 0.000000
0.000000 1.000000 0.000000
0.000000 1.000000 0.000000
0.000000 1.000000 0.000000
0.821157 1.000000 0.000000
1.000000 1.000000 0.000000
1.000000 1.000000 0.000000
1.000000 0.000000 0.111052
0.000000 1.000000 0.000000
0.000000 1.000000 0.000000
0.000000 1.000000 0.000000
0.000000 1.000000 0.000000
0.000000 1.000000 0.000000
0.000000 1.000000 0.000000
0.988712 1.000000 0.000000
1.000000 1.000000 0.000000
1.000000 1.000000 0.000000
0.000000 1.000000 0.000000
0.000000 1.000000 0.000000
0.000000 1.000000 0.000000
0.000000 1.000000 0.000000
0.000000 1.000000 0.000000
0.000000 1.000000 0.000000
0.000000 1.000000 0.000000
1.000000 1.000000 0.000000
1.000000 1.000000 0.000000
0.000000 0.000000 0.993809
0.000000 0.000000 0.993900
0.279851 0.000000 0.994262
0.597178 0.000000 0.995225
0.893872 0.000000 0.996507
1.000000 0.000000 0.993620
1.000000 0.000000 0.979353
1.000000 0.000000 0.678662
1.000000 0.000000 0.111052
0.000000 0.000000 0.993152
0.000000 0.000000 0.993255
0.256801 0.000000 0.993596
0.591670 0.000000 0.994686
0.893364 0.000000 0.996445
1.000000 0.000000 0.993561
1.000000 0.000000 0.979253
1.000000 0.000000 0.677280
1.000000 0.000000 0.111052
0.000000 0.000000 0.990553
0.000000 0.000000 0.990637
0.130775 0.000000 0.990982
0.566949 0.000000 0.992175
0.887339 0.000000 0.995153
1.000000 0.000000 0.993348
1.000000 0.000000 0.978891
1.000000 0.000000 0.672211
1.000000 0.000000 0.111052
0.000000 0.344720 0.982495
0.000000 0.342414 0.982553
0.000000 0.330588 0.982822
0.466012 0.272593 0.983821
0.848409 0.006269 0.986466
1.000000 0.000000 0.992509
1.000000 0.000000 0.977572
1.000000 0.000000 0.652796
1.000000 0.000000 0.111052
0.000000 0.735252 0.964209
0.000000 0.734905 0.964207
0.000000 0.733649 0.964201
0.000000 0.726128 0.964790
0.739662 0.699945 0.966485
1.000000 0.610532 0.968326
1.000000 0.000000 0.972657
1.000000 0.000000 0.560568
1.000000 0.000000 0.111052
0.000000 0.952903 0.935492
0.000000 0.952876 0.935468
0.000000 0.952778 0.935380
0.000000 0.952425 0.935063
0.323197 0.946191 0.935522
0.933101 0.933101 0.933101
1.000000 0.901516 0.909383
1.000000 0.000000 0.111052
1.000000 0.000000 0.111052
0.000000 1.000000 0.808592
0.000000 1.000000 0.808441
0.000000 1.000000 0.807892
0.000000 1.000000 0.805897
0.000000 1.000000 0.797133
0.800804 1.000000 0.765085
1.000000 1.000000 0.485352
1.000000 1.000000 0.000000
1.000000 0.000000 0.111052
0.000000 1.000000 0.000000
0.000000 1.000000 0.000000
0.000000 1.000000 0.000000
0.000000 1.000000 0.000000
0.000000 1.000000 0.000000
0.000000 1.000000 0.000000
0.989233 1.000000 0.000000
1.000000 1.000000 0.000000
1.000000 1.000000 0.000000
0.000000 1.000000 0.000000
0.000000 1.000000 0.000000
0.000000 1.000000 0.000000
0.000000 1.000000 0.000000
0.000000 1.000000 0.000000
0.000000 1.000000 0.000000
0.000000 1.000000 0.000000
1.000000 1.000000 0.000000
1.000000 1.000000 0.000000
0.344553 0.000000 1.000000
0.380886 0.000000 1.000000
0.470008 0.000000 1.000000
0.649893 0.000000 1.000000
0.899604 0.000000 1.000000
1.000000 0.000000 1.000000
1.000000 0.000000 1.000000
1.000000 0.000000 1.000000
1.000000 0.000000 0.917928
0.328814 0.009699 1.000000
0.365500 0.004450 1.000000
0.460427 0.000000 1.000000
0.644619 0.000000 1.000000
0.896723 0.000000 1.000000
1.000000 0.000000 1.000000
1.000000 0.000000 1.000000
1.000000 0.000000 1.000000
1.000000 0.000000 0.917702
0.267597 0.201114 1.000000
0.316433 0.195647 1.000000
0.427569 0.177314 1.000000
0.626828 0.112631 1.000000
0.886726 0.000000 1.000000
1.000000 0.000000 1.000000
1.000000 0.000000 1.000000
1.000000 0.000000 1.000000
1.000000 0.000000 0.916759
0.000000 0.481337 1.000000
0.010413 0.479728 1.000000
0.278467 0.474059 1.000000
0.562889 0.454291 1.000000
0.854873 0.371370 1.000000
1.000000 0.000000 1.000000
1.000000 0.000000 1.000000
1.000000 0.000000 1.000000
1.000000 0.000000 0.912994
0.000000 0.757093 1.000000
0.000000 0.756568 1.000000
0.000000 0.754474 1.000000
0.236220 0.747361 1.000000
0.765725 0.726199 1.000000
0.998961 0.652505 1.000000
1.000000 0.000000 1.000000
1.000000 0.000000 1.000000
1.000000 0.000000 0.898578
0.000000 0.943894 0.991641
0.000000 0.943862 0.991643
0.000000 0.943746 0.991651
0.000000 0.943328 0.991679
0.475511 0.935729 0.993560
0.932063 0.923113 0.995893
1.000000 0.888222 0.998502
1.000000 0.000000 1.000000
1.000000 0.000000 0.822380
0.000000 0.999841 0.984339
0.000000 0.999841 0.984338
0.000000 0.999840 0.984333
0.000000 0.999838 0.984317
0.000000 0.999831 0.984257
0.803641 0.992021 0.987197
0.987529 0.987529 0.987529
1.000000 0.981220 0.982741
1.000000 0.000000 0.111052
0.000000 1.000000 0.953833
0.000000 1.000000 0.953819
0.000000 1.000000 0.953769
0.000000 1.000000 0.953590
0.000000 1.000000 0.952938
0.000000 1.000000 0.950524
0.959954 1.000000 0.943401
1.000000 1.000000 0.796665
1.000000 1.000000 0.000000
0.000000 1.000000 0.000000
0.000000 1.000000 0.000000
0.000000 1.000000 0.000000
0.000000 1.000000 0.000000
0.000000 1.000000 0.000000
0.000000 1.000000 0.000000
0.000000 1.000000 0.000000
1.000000 1.000000 0.000000
1.000000 1.000000 0.000000
0.682942 0.642301 1.000000
0.689646 0.641669 1.000000
0.711899 0.639393 1.000000
0.778442 0.631123 1.000000
0.911162 0.600252 1.000000
1.000000 0.456609 1.000000
1.000000 0.000000 1.000000
1.000000 0.000000 1.000000
1.000000 0.000000 1.000000
0.680258 0.647567 1.000000
0.687040 0.646940 1.000000
0.709668 0.644725 1.000000
0.776414 0.636562 1.000000
0.909855 0.607062 1.000000
1.000000 0.468936 1.000000
1.000000 0.000000 1.000000
1.000000 0.000000 1.000000
1.000000 0.000000 1.000000
0.670766 0.665828 1.000000
0.677779 0.665222 1.000000
0.700725 0.663105 1.000000
0.769284 0.655402 1.000000
0.904861 0.628555 1.000000
1.000000 0.510314 1.000000
1.000000 0.000000 1.000000
1.000000 0.000000 1.000000
1.000000 0.000000 1.000000
0.636365 0.721788 1.000000
0.644201 0.721326 1.000000
0.670489 0.719692 1.000000
0.744263 0.713819 1.000000
0.888509 0.692787 1.000000
1.000000 0.610157 1.000000
1.000000 0.000000 1.000000
1.000000 0.000000 1.000000
1.000000 0.000000 1.000000
0.509059 0.836968 1.000000
0.520088 0.836684 1.000000
0.557636 0.835686 1.000000
0.659980 0.832244 1.000000
0.840165 0.821288 1.000000
0.991145 0.787430 1.000000
1.000000 0.546527 1.000000
1.000000 0.000000 1.000000
1.000000 0.000000 1.000000
0.000000 0.952799 1.000000
0.000000 0.952588 1.000000
0.000000 0.951835 1.000000
0.098475 0.949558 1.000000
0.710512 0.944064 1.000000
0.942317 0.934762 1.000000
1.000000 0.910820 1.000000
1.000000 0.000000 1.000000
1.000000 0.000000 1.000000
0.000000 0.999257 0.996945
0.000000 0.999256 0.996945
0.000000 0.999251 0.996946
0.000000 0.999233 0.996948
0.000000 0.999171 0.996955
0.855158 0.988963 1.000000
0.987108 0.985198 1.000000
1.000000 0.978642 1.000000
1.000000 0.000000 1.000000
0.000000 1.000000 0.995647
0.000000 1.000000 0.995647
0.000000 1.000000 0.995647
0.000000 1.000000 0.995647
0.000000 1.000000 0.995647
0.000000 1.000000 0.995647
0.960127 0.999926 0.999558
0.999027 0.999027 0.999027
1.000000 0.995467 0.995907
0.000000 1.000000 0.986820
0.000000 1.000000 0.986819
0.000000 1.000000 0.986817
0.000000 1.000000 0.986809
0.000000 1.000000 0.986782
0.000000 1.000000 0.986682
0.000000 1.000000 0.986311
0.990519 1.000000 0.989174
1.000000 1.000000 0.953916
0.908420 0.905945 1.000000
0.909249 0.905872 1.000000
0.912205 0.905608 1.000000
0.922325 0.904657 1.000000
0.948767 0.901394 1.000000
0.992530 0.890251 1.000000
1.000000 0.832750 1.000000
1.000000 0.000000 1.000000
1.000000 0.000000 1.000000
0.908097 0.906557 1.000000
0.908927 0.906484 1.000000
0.911886 0.906220 1.000000
0.922028 0.905274 1.000000
0.948513 0.902023 1.000000
0.992427 0.890934 1.000000
1.000000 0.834152 1.000000
1.000000 0.000000 1.000000
1.000000 0.000000 1.000000
0.906940 0.908738 1.000000
0.907773 0.908666 1.000000
0.910739 0.908406 1.000000
0.920963 0.907476 1.000000
0.947601 0.904268 1.000000
0.991991 0.893370 1.000000
1.000000 0.838747 1.000000
1.000000 0.000000 1.000000
1.000000 0.000000 1.000000
0.902847 0.916305 1.000000
0.903689 0.916235 1.000000
0.906687 0.915986 1.000000
0.917020 0.915096 1.000000
0.944400 0.912045 1.000000
0.989461 0.901775 1.000000
1.000000 0.854320 1.000000
1.000000 0.000000 1.000000
1.000000 0.000000 1.000000
0.890430 0.934772 1.000000
0.891318 0.934723 1.000000
0.894477 0.934545 1.000000
0.905337 0.933914 1.000000
0.935082 0.931783 1.000000
0.982093 0.925148 1.000000
1.000000 0.895731 1.000000
1.000000 0.000000 1.000000
1.000000 0.000000 1.000000
0.845999 0.968630 1.000000
0.847420 0.968595 1.000000
0.852463 0.968468 1.000000
0.869631 0.968032 1.000000
0.909114 0.966813 1.000000
0.967005 0.963961 1.000000
0.999232 0.954661 1.000000
1.000000 0.871982 1.000000
1.000000 0.000000 1.000000
0.341106 0.996711 0.998411
0.357618 0.996608 0.998444
0.413435 0.996257 0.998556
0.558673 0.995158 0.998903
0.773768 0.992494 0.999737
0.935199 0.989454 1.000000
0.989204 0.987731 1.000000
1.000000 0.983640 1.000000
1.000000 0.587971 1.000000
0.000000 1.000000 0.995647
0.000000 1.000000 0.995647
0.000000 1.000000 0.995647
0.000000 1.000000 0.995647
0.000000 1.000000 0.995647
0.000000 1.000000 0.995647
0.972426 1.000000 0.999804
0.999573 0.999587 1.000000
1.000000 0.995077 1.000000
0.000000 1.000000 0.995647
0.000000 1.000000 0.995647
0.000000 1.000000 0.995647
0.000000 1.000000 0.995647
0.000000 1.000000 0.995647
0.000000 1.000000 0.995647
0.000000 1.000000 0.995647
0.990484 1.000000 0.999932
1.000000 1.000000 1.000000
