luts/log3g10_rec709_1.CUBE
# Created by: Lutify.me
# Copyright: (c) Copyright Lutify.me 2016, G.T. Colord LTD
# Website: https://lutify.me
# Contact: help@lutify.me
LUT_3D_SIZE 5
0.015271 0.015271 0.015271
0.303610 0.000000 0.006301
0.917142 0.000000 0.069358
1.000000 0.000000 0.109071
1.000000 0.000000 0.111052
0.000000 0.267508 0.000000
0.229168 0.246246 0.000000
0.914723 0.000000 0.068961
1.000000 0.000000 0.109069
1.000000 0.000000 0.111052
0.000000 0.847411 0.000000
0.000000 0.846058 0.000000
0.772503 0.818597 0.000000
1.000000 0.000000 0.109041
1.000000 0.000000 0.111052
0.000000 1.000000 0.000000
0.000000 1.000000 0.000000
0.000000 1.000000 0.000000
1.000000 1.000000 0.000000
1.000000 0.000000 0.111052
0.000000 1.000000 0.000000
0.000000 1.000000 0.000000
0.000000 1.000000 0.000000
0.000000 1.000000 0.000000
1.000000 1.000000 0.000000
0.000000 0.000000 0.290168
0.297180 0.000000 0.277557
0.917283 0.000000 0.092989
1.000000 0.000000 0.109071
1.000000 0.000000 0.111052
0.000000 0.243105 0.236201
0.222755 0.222755 0.222755
0.914970 0.000000 0.069002
1.000000 0.000000 0.109069
1.000000 0.000000 0.111052
0.000000 0.847682 0.000000
0.000000 0.846331 0.000000
0.772755 0.818892 0.000000
1.000000 0.000000 0.109041
1.000000 0.000000 0.111052
0.000000 1.000000 0.000000
0.000000 1.000000 0.000000
0.000000 1.000000 0.000000
1.000000 1.000000 0.000000
1.000000 0.000000 0.111052
0.000000 1.000000 0.000000
0.000000 1.000000 0.000000
0.000000 1.000000 0.000000
0.000000 1.000000 0.000000
1.000000 1.000000 0.000000
0.000000 0.000000 0.839998
0.219541 0.000000 0.839542
0.898224 0.000000 0.830519
1.000000 0.000000 0.406465
1.000000 0.000000 0.111052
0.000000 0.000000 0.834411
0.039632 0.000000 0.834108
0.895774 0.000000 0.827770
1.000000 0.000000 0.381673
1.000000 0.000000 0.111052
0.000000 0.779215 0.763557
0.000000 0.777970 0.762439
0.750603 0.750602 0.750602
1.000000 0.000000 0.109044
1.000000 0.000000 0.111052
0.000000 1.000000 0.000000
0.000000 1.000000 0.000000
0.000000 1.000000 0.000000
1.000000 1.000000 0.000000
1.000000 0.000000 0.111052
0.000000 1.000000 0.000000
0.000000 1.000000 0.000000
0.000000 1.000000 0.000000
0.000000 1.000000 0.000000
1.000000 1.000000 0.000000
0.344553 0.000000 1.000000
0.470008 0.000000 1.000000
0.899604 0.000000 1.000000
1.000000 0.000000 1.000000
1.000000 0.000000 0.917928
0.267597 0.201114 1.000000
0.427569 0.177314 1.000000
0.886726 0.000000 1.000000
1.000000 0.000000 1.000000
1.000000 0.000000 0.916759
0.000000 0.757093 1.000000
0.000000 0.754474 1.000000
0.765725 0.726199 1.000000
1.000000 0.000000 1.000000
1.000000 0.000000 0.898578
0.000000 0.999841 0.984339
0.000000 0.999840 0.984333
0.000000 0.999831 0.984257
0.987529 0.987529 0.987529
1.000000 0.000000 0.111052
0.000000 1.000000 0.000000
0.000000 1.000000 0.000000
0.000000 1.000000 0.000000
0.000000 1.000000 0.000000
1.000000 1.000000 0.000000
0.908420 0.905945 1.000000
0.912205 0.905608 1.000000
0.948767 0.901394 1.000000
1.000000 0.832750 1.000000
1.000000 0.000000 1.000000
0.906940 0.908738 1.000000
0.910739 0.908406 1.000000
0.947601 0.904268 1.000000
1.000000 0.838747 1.000000
1.000000 0.000000 1.000000
0.890430 0.934772 1.000000
0.894477 0.934545 1.000000
0.935082 0.931783 1.000000
1.000000 0.895731 1.000000
1.000000 0.000000 1.000000
0.341106 0.996711 0.998411
0.413435 0.996257 0.998556
0.773768 0.992494 0.999737
0.989204 0.987731 1.000000
1.000000 0.587971 1.000000
0.000000 1.000000 0.995647
0.000000 1.000000 0.995647
0.000000 1.000000 0.995647
0.000000 1.000000 0.995647
1.000000 1.000000 1.000000
